X: 42173
T: Waterford
R: waltz
M: 3/4
K: Dmajor
|:FG|A2 A2 d2|B2 B2 e2|cB AB cA|d2 f2 a2|
A2 A2 d2|B2 B2 e2|cB AB cA|d4:|
|:ef|ge Ac eg|fd Ad fd|ce ge dc|d2 f2 a2|
ge Ac eg|fd Ad fd|ce ge dc|d4:|
|:FG|Ad Fd Ad|Bd Gd Bd|ce ge dc|df af d2|
Ad Fd Ad|Bd Gd Bd|ce ge dc|e2 d2:|
|:fg|a2 ab c’d’|b2 g2 g2|fd ge fd|ed cB A>f|
a2 ab c’d’|b2 g2 g2|fd ge dc|e2 d2:|

